X: 356
T:Fama malum
N: Derived from Jos2815-Fama_malum.krn
C: Josquin des Prez
%%abc-version 2.0
%%abcx-abcm2ps-target-version 5.9.1 (29 Sep 2008)
%%abc-creator hum2abc beta
%%abcx-conversion-date 2019/02/12 16:15:54
%%abc-edited-by Jesse Rodin
%%abc-edited-by Jesse Rodin; Victoria Chang 2011/10/21
%%abcx-initial-encoding-date 2011/10/21/
%%humdrum-veritas 3081872619
%%humdrum-veritas-data 2986478835
%%linebreak <none>
%%barnumbers 0
L: 1/4
M: 2/1
Q: 1/2=120
%%staves [1 2 3 4]
V: 1 clef=treble
V: 2 clef=treble-8
V: 3 clef=treble-8
V: 4 clef=bass
K: C
[V:1] z8 | 
[V:2] z8 | 
[V:3] c8 | 
[V:4] z4F,4- | 
[V:1] z8 | 
[V:2] z8 | 
[V:3] A4B4- | 
[V:4] F,4D,4 | 
[V:1] z8 | 
[V:2] z8 | 
[V:3] B2E2E4 | 
[V:4] E,6A,,2 | 
[V:1] c8 | 
[V:2] z4f4- | 
[V:3] z8 | 
[V:4] A,,4z4 | 
[V:1] A4B4- | 
[V:2] f4d4 | 
[V:3] z8 | 
[V:4] z8 | 
[V:1] B2E2E4 | 
[V:2] e6A2 | 
[V:3] z8 | 
[V:4] z8 | 
[V:1] z8 | 
[V:2] A8 | 
[V:3] c8 | 
[V:4] z4F,4- | 
[V:1] z8 | 
[V:2] z8 | 
[V:3] A4B4- | 
[V:4] F,4D,4 | 
[V:1] z8 | 
[V:2] z8 | 
[V:3] B2E2E4 | 
[V:4] E,6A,,2 | 
[V:1] c8 | 
[V:2] z4f4- | 
[V:3] e4c4 | 
[V:4] A,,4A,4 | 
[V:1] A4B4- | 
[V:2] f4d4 | 
[V:3] d6G2 | 
[V:4] F,4G,4- | 
[V:1] B2E2E4 | 
[V:2] e6A2 | 
[V:3] G4c4- | 
[V:4] G,2C,2C,4 | 
[V:1] A8 | 
[V:2] A8 | 
[V:3] c4A4 | 
[V:4] F,8 | 
[V:1] G8- | 
[V:2] e8 | 
[V:3] B6E2 | 
[V:4] E,4G,4- | 
[V:1] G8- | 
[V:2] z2e4dc | 
[V:3] E8 | 
[V:4] G,2C,2C,2G,2- | 
[V:1] G8 | 
[V:2] B4e4 | 
[V:3] z4E4 | 
[V:4] G,F,E,4D,C, | 
[V:1] z4E4 | 
[V:2] d4c4 | 
[V:3] G4A4 | 
[V:4] B,,4z2A,,2 | 
[V:1] G4A4 | 
[V:2] z2e4d2 | 
[V:3] B2c4BA | 
[V:4] E,4F,4 | 
[V:1] B2c4BA | 
[V:2] g3fedf2- | 
[V:3] G4A3G | 
[V:4] E,4z2A,,2 | 
[V:1] G4A4 | 
[V:2] fee4d2 | 
[V:3] E2c4A2 | 
[V:4] E,4F,4 | 
[V:1] G4z2G2 | 
[V:2] e8 | 
[V:3] B3EE2c2- | 
[V:4] E,3F,G,2E,2 | 
[V:1] E2F2G4- | 
[V:2] z2c2d2G2- | 
[V:3] c2A2B3E | 
[V:4] A,4G,4 | 
[V:1] G2C2z2c2- | 
[V:2] G2g4e2 | 
[V:3] E4z2A2- | 
[V:4] C,4z4 | 
[V:1] c2A2B3E | 
[V:2] f4d2e2- | 
[V:3] A2F2G3C | 
[V:4] z8 | 
[V:1] E2c4A2 | 
[V:2] e2c4d2- | 
[V:3] C4z4 | 
[V:4] z8 | 
[V:1] B3EE2A2- | 
[V:2] d2B2c2A2 | 
[V:3] z4c4 | 
[V:4] z4z2F,2- | 
[V:1] A2F2G3C | 
[V:2] c2d2B2c2- | 
[V:3] A2B3EE2 | 
[V:4] F,2D,2E,3A,, | 
[V:1] C2c4B2 | 
[V:2] c2A2c2d2 | 
[V:3] c4A2B2- | 
[V:4] A,,2F,4D,2 | 
[V:1] G2c3BAG | 
[V:2] B2G2A4- | 
[V:3] BEE2c3B | 
[V:4] E,3A,,A,,2F,2- | 
[V:1] FEA4^G2 | 
[V:2] A4e4- | 
[V:3] c2d2B4 | 
[V:4] F,2D,2E,4 | 
[V:1] A8- | 
[V:2] e2c2c4 | 
[V:3] A8 | 
[V:4] A,,8 | 
[V:1] A8 | 
[V:2] z4e4- | 
[V:3] z8 | 
[V:4] A,6A,2 | 
[V:1] z8 | 
[V:2] e2e2d2B2 | 
[V:3] z8 | 
[V:4] G,2E,2G,4 | 
[V:1] A6A2 | 
[V:2] d4c4- | 
[V:3] z8 | 
[V:4] F,8 | 
[V:1] G2E2G4 | 
[V:2] c4B4 | 
[V:3] e6e2 | 
[V:4] E,8 | 
[V:1] F8 | 
[V:2] z8 | 
[V:3] d2B2d4 | 
[V:4] z8 | 
[V:1] E4z2E2 | 
[V:2] z2A2c3d | 
[V:3] c8 | 
[V:4] A,6A,2 | 
[V:1] G4D3E | 
[V:2] e3dB2d2- | 
[V:3] B8 | 
[V:4] G,2E,2G,4 | 
[V:1] FGA4GF | 
[V:2] dcA2c3d | 
[V:3] z2c4A2 | 
[V:4] F,8 | 
[V:1] G2E2G4 | 
[V:2] e4z2d2 | 
[V:3] B4E2B2 | 
[V:4] E,2G,4F,E, | 
[V:1] F8 | 
[V:2] f3ec3d | 
[V:3] d3cA3B | 
[V:4] D,3E,F,G,A,2- | 
[V:1] E8 | 
[V:2] e2A2e2f2 | 
[V:3] cde4dc | 
[V:4] A,2G,F,E,2A,2 | 
[V:1] z4z2A2- | 
[V:2] g2d2f4- | 
[V:3] d2B2d4 | 
[V:4] G,4F,2D,2 | 
[V:1] ABc4BA | 
[V:2] f2edc2d2 | 
[V:3] c2A2c4- | 
[V:4] F,8 | 
[V:1] G8 | 
[V:2] e8 | 
[V:3] c2BAB2c2 | 
[V:4] E,6C,2 | 
[V:1] z2G4A2 | 
[V:2] z4c4 | 
[V:3] c4z4 | 
[V:4] C,4z4 | 
[V:1] B4G2c2- | 
[V:2] d2e3dcB | 
[V:3] z8 | 
[V:4] z8 | 
[V:1] cBA4GF | 
[V:2] A3Gc4- | 
[V:3] z8 | 
[V:4] z8 | 
[V:1] E3FG2C2- | 
[V:2] c2BAB2cd | 
[V:3] z8 | 
[V:4] z8 | 
[V:1] CDEFGABc | 
[V:2] efg3fge | 
[V:3] z8 | 
[V:4] z8 | 
[V:1] d2c4B2 | 
[V:2] fedcd4 | 
[V:3] z4z2G2 | 
[V:4] z8 | 
[V:1] c8 | 
[V:2] c8 | 
[V:3] c3BA2G2 | 
[V:4] z2C,2F,3E, | 
[V:1] z8 | 
[V:2] z8 | 
[V:3] A2E2z2c2- | 
[V:4] D,2C,2D,2A,,2 | 
[V:1] z8 | 
[V:2] z8 | 
[V:3] cBB3AA2- | 
[V:4] E,3D,/E,/D,C,B,,A,, | 
[V:1] z2G2c3B | 
[V:2] z4z2c2 | 
[V:3] A2^G2A4 | 
[V:4] B,,4A,,4 | 
[V:1] A2G2A2E2 | 
[V:2] f3ed2c2 | 
[V:3] z4z2A2 | 
[V:4] z8 | 
[V:1] z2c3BB2- | 
[V:2] d2A2e3d/e/ | 
[V:3] G2A2E3F | 
[V:4] z8 | 
[V:1] BAA4^G2 | 
[V:2] dcBAB4 | 
[V:3] G2A2E4 | 
[V:4] z8 | 
[V:1] A4z4 | 
[V:2] A4z4 | 
[V:3] A4z4 | 
[V:4] z8 | 
[V:1] G6G2 | 
[V:2] e6e2 | 
[V:3] B6B2 | 
[V:4] E,6E,2 | 
[V:1] G4G4 | 
[V:2] e4e4 | 
[V:3] B4G4 | 
[V:4] E,4E,4 | 
[V:1] E4F4- | 
[V:2] c4d4- | 
[V:3] A8 | 
[V:4] A,,4D,4- | 
[V:1] F2EDF4 | 
[V:2] d2cBA3B | 
[V:3] F8 | 
[V:4] D,2F,4E,D, | 
[V:1] E3FG2A2- | 
[V:2] c8- | 
[V:3] G4E4- | 
[V:4] C,8- | 
[V:1] A2GFE4- | 
[V:2] c8- | 
[V:3] E2F2G4 | 
[V:4] C,8 | 
[V:1] E8 | 
[V:2] c8 | 
[V:3] z4z2A2 | 
[V:4] A,,8 | 
[V:1] z2A2A2A2 | 
[V:2] z8 | 
[V:3] A2A2c3B | 
[V:4] z8 | 
[V:1] c3BA3G | 
[V:2] z8 | 
[V:3] A2G2c3d/c/ | 
[V:4] z8 | 
[V:1] F2E2F4 | 
[V:2] z2A2A2A2 | 
[V:3] d2e2A4 | 
[V:4] z4z2A,2 | 
[V:1] E8 | 
[V:2] c3BA2G2 | 
[V:3] z8 | 
[V:4] A,2A,2C3B, | 
[V:1] z8 | 
[V:2] c3d/c/d2e2 | 
[V:3] z8 | 
[V:4] A,3G,F,2E,2 | 
[V:1] z4z2A2 | 
[V:2] ABcde2f2- | 
[V:3] z8 | 
[V:4] F,4E,2D,2 | 
[V:1] A2A2c3B | 
[V:2] f2d2e2A2 | 
[V:3] z8 | 
[V:4] F,4E,2F,2- | 
[V:1] A3GF2E2 | 
[V:2] c3d/c/d2e2- | 
[V:3] z4z2A2 | 
[V:4] F,2E,2D,2C,2 | 
[V:1] F4E2c2- | 
[V:2] e2d2e4 | 
[V:3] A2A2c3B | 
[V:4] D,3C,A,,2E,2 | 
[V:1] c2B2A2B2- | 
[V:2] z4z2e2 | 
[V:3] A3GF2E2 | 
[V:4] F,3G,A,2G,2 | 
[V:1] BAA4^G2 | 
[V:2] c2d2B4 | 
[V:3] F4E4 | 
[V:4] A,2D,2E,4 | 
[V:1] A8- | 
[V:2] A2A2A2c2- | 
[V:3] z2A2A2A2 | 
[V:4] A,,8- | 
[V:1] A8- | 
[V:2] cBAGF2f2 | 
[V:3] c3BA3G | 
[V:4] A,,4z2D,2- | 
[V:1] A8- | 
[V:2] d2e4d2 | 
[V:3] F2E2F4 | 
[V:4] D,2C,2D,4 | 
[V:1] A8- | 
[V:2] e4c4- | 
[V:3] E8- | 
[V:4] A,,8- | 
[V:1] A8- | 
[V:2] c2BAc3d | 
[V:3] E8- | 
[V:4] A,,8- | 
[V:1] A8 |]  
[V:2] e8 |]  
[V:3] E8 |]  
[V:4] A,,8 |]  



